X:95
M:C
L:1/8
Q:1/4=120
K:C Minor
e|B>GG>F E>C C<E|B,<G, E>G, B,3 e|B<G G>F E>C C<E|=B,<G, G>B, C2 C<e|
~e>fg>e f<d b>d|B<G e>G B2 Ba|g>fe>d c>de>g|G<c d>B c2c||

